src/img/feature-5.svg

<svg width="63" height="61" viewBox="0 0 63 61" fill="none" xmlns="http://www.w3.org/2000/svg">
<path fill-rule="evenodd" clip-rule="evenodd" d="M0 61L8.97259 57.8554L2.18754 54.6897L0 61Z" fill="#F7B600"/>
<path fill-rule="evenodd" clip-rule="evenodd" d="M26.1697 35.1255L13.4138 22.2755L11.3584 28.2083L26.1697 35.1255Z" fill="#FFDD7D"/>
<path fill-rule="evenodd" clip-rule="evenodd" d="M11.3584 28.2083L9.06492 34.8331L37.1924 47.9639L38.465 47.5169L26.1697 35.1255L11.3584 28.2083Z" fill="#F7B600"/>
<path fill-rule="evenodd" clip-rule="evenodd" d="M6.77246 41.4485L27.7875 51.2611L37.1955 47.9639L9.06807 34.8331L6.77246 41.4485Z" fill="#FFDD7D"/>
<path fill-rule="evenodd" clip-rule="evenodd" d="M4.48 48.067L18.3795 54.5582L27.7844 51.261L6.76931 41.4485L4.48 48.067Z" fill="#F7B600"/>
<path fill-rule="evenodd" clip-rule="evenodd" d="M4.48 48.067L2.18754 54.6855L8.97259 57.8511L18.3795 54.554L4.48 48.067Z" fill="#FFDD7D"/>
<path fill-rule="evenodd" clip-rule="evenodd" d="M31.3589 29.6586C38.4367 36.64 42.091 44.3554 39.5205 46.8922C36.949 49.4268 29.1231 45.8236 22.0454 38.8423C14.9676 31.862 11.3154 24.1455 13.8869 21.6098C16.4574 19.073 24.2812 22.6762 31.3589 29.6586Z" fill="#493816"/>
<path fill-rule="evenodd" clip-rule="evenodd" d="M22.5532 12.0738C20.842 9.69271 22.699 8.62942 24.9757 9.05537C22.8113 6.38609 24.1458 4.53611 27.5578 5.2618C28.6237 5.48897 27.1402 7.29478 26.1844 7.22747C29.0529 9.3814 27.4791 11.6552 24.4417 11.1199C27.1276 14.8167 22.5123 13.9059 20.4947 14.0605C19.967 16.8276 23.1197 19.9828 22.0685 19.9828C19.7193 19.9828 15.979 11.2524 22.5532 12.0738Z" fill="#42ADE2"/>
<path fill-rule="evenodd" clip-rule="evenodd" d="M44.6374 17.1789C43.0856 17.8793 38.6497 10.9274 44.0866 10.8685C40.9652 8.02363 41.3671 6.65113 45.5554 6.56805C40.7565 1.74694 48.3399 0.00108004 49.1394 2.58306C49.3776 3.35608 46.8176 1.90155 45.9814 3.28772C45.0182 4.88739 51.8872 8.92601 44.7989 8.68727C47.4051 11.3471 47.5635 12.5881 43.4056 13.0351C43.9491 13.7881 45.6205 16.7351 44.6353 17.1799" fill="#FF8736"/>
<path fill-rule="evenodd" clip-rule="evenodd" d="M46.4052 33.5879L48 32.2301C48 32.2301 49.5066 34.4114 50.5652 35.2391C51.3784 31.4949 51.1612 29.219 55.5163 31.8168C53.0549 25.2992 57.1111 27.7613 60.9448 29.5272C60.7234 27.8739 60.9794 28.0484 62.6392 27.5804C64.1123 33.1209 60.1537 31.517 56.9243 29.6944C58.773 34.6932 56.8383 34.464 52.799 32.7549C52.7297 34.8794 52.0383 37.2763 50.7698 37.4814C49.3272 37.7159 46.4053 33.5858 46.4053 33.5858" fill="#ED4C5C"/>
<path fill-rule="evenodd" clip-rule="evenodd" d="M34.6334 17.9319C32.6967 20.4592 29.7443 21.8706 27.5064 24.0813C25.1782 26.3825 23.787 32.7139 23.787 32.7139C23.787 32.7139 24.619 26.1112 26.8443 23.5702C28.8588 21.2722 31.7398 19.5978 33.2989 16.9244C36.0876 12.1432 33.5979 5.74454 30.0391 2.09505C30.7871 1.42721 31.7786 0.582674 32.3788 0.00317383C35.7277 4.30998 38.7053 12.6239 34.6334 17.9351" fill="#C28FEF"/>
<path fill-rule="evenodd" clip-rule="evenodd" d="M37.8649 23.3273C35.0898 25.3266 33.1824 28.2283 31.2498 30.9933C29.5428 33.4343 24.2109 36.4296 24.2109 36.4296C24.2109 36.4296 29.2784 33.0052 30.7829 30.4359C32.6358 27.2702 34.5306 24.014 37.4715 21.7276C43.3511 17.1557 51.8264 17.669 58.4761 20.0743C58.0973 21.0398 57.3146 23.0317 57.3146 23.0317C57.3146 23.0317 43.4675 19.2918 37.8649 23.3273Z" fill="#FF8736"/>
<path fill-rule="evenodd" clip-rule="evenodd" d="M49.5738 22.8414C47.8091 25.1856 46.9015 28.0169 45.5491 30.5926C44.2912 32.9936 42.6292 35.3148 40.1679 36.5884C37.4893 37.9767 31.4303 37.5024 31.4303 37.5024C31.4303 37.5024 37.4568 37.4309 39.935 35.7586C42.4635 34.0496 43.7896 31.1594 44.779 28.3755C46.6319 23.1642 48.9548 17.466 54.4241 15.1469C54.7913 16.1408 55.5247 18.1296 55.5247 18.1296C55.5247 18.1296 52.5146 18.9331 49.5738 22.8435" fill="#42ADE2"/>
<path fill-rule="evenodd" clip-rule="evenodd" d="M1.28091 11.8491L4.24799 8.87396L7.21591 11.8482L4.24883 14.8234L1.28091 11.8491Z" fill="#42ADE2"/>
<path fill-rule="evenodd" clip-rule="evenodd" d="M5.42447 21.2447L8.39197 18.27L11.3595 21.2447L8.39197 24.2194L5.42447 21.2447Z" fill="#FF8736"/>
<path fill-rule="evenodd" clip-rule="evenodd" d="M12.9999 7.18416L15.967 4.20905L18.9349 7.18332L15.9678 10.1584L12.9999 7.18416Z" fill="#ED4C5C"/>
<path fill-rule="evenodd" clip-rule="evenodd" d="M45.305 42.761L48.2725 39.7863L51.24 42.761L48.2725 45.7357L45.305 42.761Z" fill="#C28FEF"/>
<path fill-rule="evenodd" clip-rule="evenodd" d="M38.6917 52.9662L41.6592 49.9915L44.6267 52.9662L41.6592 55.9408L38.6917 52.9662Z" fill="#ED4C5C"/>
<path fill-rule="evenodd" clip-rule="evenodd" d="M51.705 55.32L54.6725 52.3453L57.64 55.32L54.6725 58.2947L51.705 55.32Z" fill="#FF8736"/>
<path fill-rule="evenodd" clip-rule="evenodd" d="M54.6761 41.762L57.6436 38.7873L60.6111 41.762L57.6436 44.7367L54.6761 41.762Z" fill="#42ADE2"/>
<path fill-rule="evenodd" clip-rule="evenodd" d="M49.7214 10.338L52.6889 7.36334L55.6564 10.338L52.6889 13.3127L49.7214 10.338Z" fill="#42ADE2"/>
<path fill-rule="evenodd" clip-rule="evenodd" d="M17.8871 28.22L20.8546 25.2453L23.8221 28.22L20.8546 31.1947L17.8871 28.22Z" fill="#ED4C5C"/>
</svg>

<svg width="63" height="61" fill="none" xmlns="http://www.w3.org/2000/svg"><path fill-rule="evenodd" clip-rule="evenodd" d="M0 61l8.973-3.145-6.785-3.165L0 61z" fill="#F7B600"/><path fill-rule="evenodd" clip-rule="evenodd" d="M26.17 35.126l-12.756-12.85-2.056 5.932 14.812 6.918z" fill="#FFDD7D"/><path fill-rule="evenodd" clip-rule="evenodd" d="M11.358 28.208l-2.293 6.625 28.127 13.13 1.273-.446L26.17 35.125l-14.812-6.917z" fill="#F7B600"/><path fill-rule="evenodd" clip-rule="evenodd" d="M6.772 41.449l21.016 9.812 9.408-3.297-28.128-13.13-2.296 6.614z" fill="#FFDD7D"/><path fill-rule="evenodd" clip-rule="evenodd" d="M4.48 48.067l13.9 6.491 9.404-3.297L6.77 41.448 4.48 48.068z" fill="#F7B600"/><path fill-rule="evenodd" clip-rule="evenodd" d="M4.48 48.067l-2.292 6.618 6.785 3.166 9.406-3.297L4.48 48.067z" fill="#FFDD7D"/><path fill-rule="evenodd" clip-rule="evenodd" d="M31.359 29.659c7.078 6.981 10.732 14.696 8.161 17.233-2.571 2.535-10.397-1.068-17.475-8.05-7.077-6.98-10.73-14.697-8.158-17.232 2.57-2.537 10.394 1.066 17.472 8.049z" fill="#493816"/><path fill-rule="evenodd" clip-rule="evenodd" d="M22.553 12.074c-1.711-2.381.146-3.445 2.423-3.019-2.165-2.669-.83-4.519 2.582-3.793 1.066.227-.418 2.033-1.374 1.965 2.869 2.154 1.295 4.428-1.742 3.893 2.686 3.697-1.93 2.786-3.947 2.94-.528 2.768 2.625 5.923 1.573 5.923-2.349 0-6.089-8.73.485-7.91z" fill="#42ADE2"/><path fill-rule="evenodd" clip-rule="evenodd" d="M44.637 17.179c-1.551.7-5.987-6.252-.55-6.31-3.122-2.845-2.72-4.218 1.468-4.3C40.757 1.746 48.34 0 49.14 2.582c.239.773-2.321-.681-3.158.705-.963 1.6 5.906 5.638-1.182 5.4 2.606 2.66 2.764 3.9-1.393 4.347.543.753 2.215 3.7 1.23 4.145" fill="#FF8736"/><path fill-rule="evenodd" clip-rule="evenodd" d="M46.405 33.588L48 32.23s1.507 2.181 2.565 3.01c.813-3.745.596-6.021 4.951-3.423-2.461-6.518 1.595-4.056 5.429-2.29-.222-1.653.034-1.479 1.694-1.947 1.473 5.54-2.485 3.937-5.715 2.114 1.849 5-.086 4.77-4.125 3.06-.07 2.125-.76 4.522-2.03 4.727-1.442.235-4.364-3.895-4.364-3.895" fill="#ED4C5C"/><path fill-rule="evenodd" clip-rule="evenodd" d="M34.633 17.932c-1.936 2.527-4.889 3.939-7.127 6.15-2.328 2.3-3.719 8.632-3.719 8.632s.832-6.603 3.057-9.144c2.015-2.298 4.896-3.972 6.455-6.646 2.789-4.78.299-11.18-3.26-14.829.748-.668 1.74-1.512 2.34-2.092 3.349 4.307 6.326 12.62 2.254 17.932" fill="#C28FEF"/><path fill-rule="evenodd" clip-rule="evenodd" d="M37.865 23.327c-2.775 2-4.683 4.901-6.615 7.666-1.707 2.441-7.04 5.437-7.04 5.437s5.068-3.425 6.573-5.994c1.853-3.166 3.748-6.422 6.688-8.708 5.88-4.572 14.355-4.059 21.005-1.654l-1.161 2.958s-13.847-3.74-19.45.295z" fill="#FF8736"/><path fill-rule="evenodd" clip-rule="evenodd" d="M49.574 22.841c-1.765 2.345-2.672 5.176-4.025 7.752-1.258 2.4-2.92 4.722-5.381 5.995-2.679 1.389-8.738.914-8.738.914s6.027-.071 8.505-1.743c2.529-1.71 3.855-4.6 4.844-7.384 1.853-5.21 4.176-10.909 9.645-13.228l1.1 2.983s-3.01.803-5.95 4.713M1.28 11.85l2.968-2.976 2.968 2.974-2.967 2.975L1.28 11.85z" fill="#42ADE2"/><path fill-rule="evenodd" clip-rule="evenodd" d="M5.424 21.245l2.968-2.975 2.968 2.975-2.968 2.974-2.968-2.974z" fill="#FF8736"/><path fill-rule="evenodd" clip-rule="evenodd" d="M13 7.184l2.967-2.975 2.968 2.974-2.967 2.975L13 7.184z" fill="#ED4C5C"/><path fill-rule="evenodd" clip-rule="evenodd" d="M45.305 42.761l2.968-2.975 2.967 2.975-2.968 2.975-2.967-2.975z" fill="#C28FEF"/><path fill-rule="evenodd" clip-rule="evenodd" d="M38.692 52.966l2.967-2.974 2.968 2.974-2.968 2.975-2.967-2.975z" fill="#ED4C5C"/><path fill-rule="evenodd" clip-rule="evenodd" d="M51.705 55.32l2.968-2.975 2.967 2.975-2.968 2.975-2.967-2.975z" fill="#FF8736"/><path fill-rule="evenodd" clip-rule="evenodd" d="M54.676 41.762l2.968-2.975 2.967 2.975-2.967 2.975-2.968-2.975zM49.721 10.338l2.968-2.975 2.967 2.975-2.967 2.975-2.968-2.975z" fill="#42ADE2"/><path fill-rule="evenodd" clip-rule="evenodd" d="M17.887 28.22l2.968-2.975 2.967 2.975-2.967 2.975-2.968-2.975z" fill="#ED4C5C"/></svg>
